X:1
T: Fiddler's Joy
C:
R:Strathspey
Q: 128
K:D
M:4/4
L:1/16
|:d4 fa3 A3a ((3f2e2d2) |c4 A3c e3f ((3g2f2e2) |d4 fa3 A3a ((3f2e2d2) |1((3c2B2A2) ((3g2f2e2) d4 ((3A2B2c2):|2c3A ((3g2f2e2) D4 d3A|
|:d4 fa3 A3a ((3f2e2d2) |c4 A3c e3f ((3g2f2e2) |d4 fa3 A3a ((3f2e2d2) |1((3c2B2A2) ((3g2f2e2) d4 ((3A2B2c2):|2c3A ((3g2f2e2) D4 d3A|
|:d3e f3d fa3 f3d|g3B e3d c3e ((3A2B2c2) |d3e f3d fa3 f3d|((3c2B2A2) ((3g2f2e2) d4 d3A|
d3e f3d fa3 f3d|g3B e3d c3e ((3e2f2g2) |((3a2g2f2) ((3g2f2e2) ((3f2e2d2) ((3e2f2g2) |c3A ((3g2f2e2) d4 d4:|
